!!! OTL: Berkowitz604
!!! Chapter: 1
!!! Section: V
!!! Page: 154
!!! Mode: 
!!! Encoder: AR
**kern
*staff1
=1-
!!pagebreak:original
*clefF4
*k[]
*C:
*M4/4
4D\
4F#\
4.A#\
8E\
=2
4G\
4d-\
2c\
=3
4e-\
4A-\
8B\L
8An\J
4F\
=4
4e-\
4B\
8G\L
8d-\J
4B-\
=5
2En\
4.F\
8Dn\
=6
!!linebreak:original
4A\
4F#\
2G#\
=7
2c\
4.A-\
8E\
=8
8B-\L
8B-\
8B-\
8G\J
2C#/
=9
8C#/L
8BBn/J
4F#\
2D#\
=10
4Fn\
4F\
4A\
4r
==
*-
